X: 052
M: C
L: 1/8
K: Am
e2 |\
a2a2 a2^g2 | a2gf e2e2 | a3b a3g | Tf4 e2e2 |\
a2a2 a2^g2 | a2gf e2e2 | a3b a3g | Tf4 e2 |]
g2 |\
f3e d3f | e2de c2e2 | d3c B3d | cdcB A4 |\

